public/logo.svg

<svg viewBox="0 0 256 256" xmlns="http://www.w3.org/2000/svg"><rect width="256" height="256" rx="56" fill="#6c3bff"/><path d="M96 78c0-16 12-26 30-26h28c34 0 56 22 56 56s-22 56-56 56h-28c-10 0-16 6-16 16v24c0 10-8 18-18 18s-18-8-18-18V94c0-10 8-16 22-16m56 6h-26v56h26c16 0 28-12 28-28s-12-28-28-28" fill="#fff"/></svg>

<svg width="256" height="256" viewBox="0 0 256 256" fill="none" xmlns="http://www.w3.org/2000/svg">
  <!-- Background -->
  <rect width="256" height="256" rx="56" fill="#6C3BFF"/>

  <!-- P Shape -->
  <path d="M96 78
           C96 62 108 52 126 52
           H154
           C188 52 210 74 210 108
           C210 142 188 164 154 164
           H126
           C116 164 110 170 110 180
           V204
           C110 214 102 222 92 222
           C82 222 74 214 74 204
           V94
           C74 84 82 78 96 78Z"
        fill="white"/>

  <!-- Inner cutout -->
  <path d="M126 84
           H152
           C168 84 180 96 180 112
           C180 128 168 140 152 140
           H126
           V84Z"
        fill="#6C3BFF"/>

  <!-- Dot -->
  <circle cx="142" cy="112" r="10" fill="white"/>
</svg>
